X:1
T:Sheehan's
T:Black Eyed Sailor, The
R:reel
S:Mick Hand, flute classes in Miltown Malbay 1991.
H:See also Wellington's, #569
Z:id:hn-reel-120
M:C|
K:G
G2BG DGBG|ABcA BG~G2|AGAB cBAG|EAAG FDEF|
G2BG DGBd|cBAB cdef|gedB c2Bc|dBcA BG~G2:|
|:g2bg dgbg|gbag fdde|f2af dfaf|gbag fdef|
g2bg dgbg|gbag fdef|gedB c2Bc|dBcA BG~G2:|

